X: 66
T:Hills of Coor, The
M:C|
C:Martin "Junior" Crehan
R:hornpipe
D:Cran: The Crooked Stair
Z:id:hn-hornpipe-71
K:Ador
AG|EAAB AGEG|cd (3ede ged2|(3efg ab gedB|(3cBA BG AGED|
EAAB AGEG|cd (3ede ged2|(3efg ab gedB|DEGB A2:|
|:Aa|ae (3abc' ae (3abc'|gd (3gab gddg|(3efg ab gedB|(3cBA BG AGED|
EAAB AGEG|cd (3ede ged2|(3efg ab gedB|DEGB A2:|

